common/icons/svgs/cc_zero.svg

<svg xmlns="http://www.w3.org/2000/svg" viewbox="0 0 24 24"><path class="icon__shape" fill-rule="nonzero" d="M12 5.9c-3.6 0-4.4 3.4-4.4 6.2 0 2.8.9 6.2 4.4 6.2 3.5 0 4.5-3.4 4.5-6.2 0-2.8-.9-6.2-4.5-6.2zm-1.9 6.2c0-1.2.1-3.9 1.9-3.9.1 0 .3 0 .4.1.3.2.4.6.2.9v.1l-2.4 4.4c-.1-.6-.1-1.1-.1-1.6zm1.9 3.8h-.6c-.4-.2-.7-.5-.3-1l2.6-4.6c.1.6.1 1.2.1 1.9.1 1.1 0 3.7-1.8 3.7z"/><path class="icon__shape" fill-rule="nonzero" d="M22 7.9c-.5-1.3-1.3-2.5-2.3-3.5-2-2.1-4.8-3.2-7.7-3.2-2.9-.1-5.6 1.1-7.6 3.1C3.4 5.4 2.6 6.7 2 8a10.6 10.6 0 0 0 0 8.2c.5 1.3 1.3 2.5 2.3 3.5 1 1 2.2 1.8 3.5 2.3 2.6 1.1 5.6 1.1 8.2 0 1.3-.6 2.6-1.4 3.6-2.4s1.8-2.1 2.3-3.4c.5-1.3.8-2.7.8-4.2.1-1.4-.2-2.8-.7-4.1zm-3.7 10.3c-.8.8-1.8 1.5-2.9 2-1.1.4-2.2.7-3.3.7-1.1 0-2.3-.2-3.4-.7-1.1-.5-2-1.1-2.9-1.9-.8-.8-1.5-1.8-2-2.9-.9-2.1-.9-4.6 0-6.7.5-1.1 1.2-2.1 2-2.9C7.4 4.1 9.7 3.2 12 3.2c2.4 0 4.6.9 6.2 2.6.8.8 1.5 1.8 1.9 2.9.4 1.1.7 2.2.7 3.4.1 2.3-.8 4.5-2.5 6.1z"/></svg>

<svg xmlns="http://www.w3.org/2000/svg" width="24" height="24" viewBox="0 0 24 24">
  <g fill="none" fill-rule="evenodd" transform="translate(-408 -66)">
    <rect width="504" height="450" fill="#FFF"/>
    <g transform="translate(408 66)">
      <rect width="24" height="24"/>
      <path fill="#000" fill-rule="nonzero" d="M12,5.9 C8.4,5.9 7.6,9.3 7.6,12.1 C7.6,14.9 8.5,18.3 12,18.3 C15.5,18.3 16.5,14.9 16.5,12.1 C16.5,9.3 15.6,5.9 12,5.9 Z M10.1,12.1 C10.1,10.9 10.2,8.2 12,8.2 C12.1,8.2 12.3,8.2 12.4,8.3 C12.7,8.5 12.8,8.9 12.6,9.2 L12.6,9.3 L10.2,13.7 C10.1,13.1 10.1,12.6 10.1,12.1 Z M12,15.9 L11.4,15.9 C11,15.7 10.7,15.4 11.1,14.9 L13.7,10.3 C13.8,10.9 13.8,11.5 13.8,12.2 C13.9,13.3 13.8,15.9 12,15.9 L12,15.9 Z"/>
      <path fill="#000" fill-rule="nonzero" d="M22,7.9 C21.5,6.6 20.7,5.4 19.7,4.4 C17.7,2.3 14.9,1.2 12,1.2 C9.1,1.1 6.4,2.3 4.4,4.3 C3.4,5.4 2.6,6.7 2,8 C0.899957374,10.622654 0.899957374,13.577346 2,16.2 C2.5,17.5 3.3,18.7 4.3,19.7 C5.3,20.7 6.5,21.5 7.8,22 C10.4,23.1 13.4,23.1 16,22 C17.3,21.4 18.6,20.6 19.6,19.6 C20.6,18.6 21.4,17.5 21.9,16.2 C22.4,14.9 22.7,13.5 22.7,12 C22.8,10.6 22.5,9.2 22,7.9 Z M18.3,18.2 C17.5,19 16.5,19.7 15.4,20.2 C14.3,20.6 13.2,20.9 12.1,20.9 C11,20.9 9.8,20.7 8.7,20.2 C7.6,19.7 6.7,19.1 5.8,18.3 C5,17.5 4.3,16.5 3.8,15.4 C2.9,13.3 2.9,10.8 3.8,8.7 C4.3,7.6 5,6.6 5.8,5.8 C7.4,4.1 9.7,3.2 12,3.2 C14.4,3.2 16.6,4.1 18.2,5.8 C19,6.6 19.7,7.6 20.1,8.7 C20.5,9.8 20.8,10.9 20.8,12.1 C20.9,14.4 20,16.6 18.3,18.2 L18.3,18.2 Z"/>
    </g>
  </g>
</svg>
